images/logo6.svg

<svg width="95" height="45" viewBox="0 0 95 45" fill="none" xmlns="http://www.w3.org/2000/svg">
<path d="M47.785 21.4082C47.3419 20.8184 47.1299 20.1213 47.1802 19.4196V16.5364C47.1802 15.6526 47.3807 14.9809 47.7816 14.5214C48.1824 14.0619 48.8709 13.8331 49.8471 13.8351C50.7643 13.8351 51.4155 14.0306 51.8005 14.4217C52.2205 14.9207 52.4248 15.5309 52.378 16.1463V16.8239H50.7372V16.1375C50.743 15.9129 50.7271 15.6882 50.6896 15.4659C50.666 15.3138 50.5834 15.1732 50.4552 15.067C50.2867 14.9525 50.0744 14.897 49.8607 14.9115C49.6359 14.897 49.4129 14.9556 49.2356 15.0758C49.0927 15.1935 48.9974 15.3477 48.9638 15.5157C48.9167 15.7511 48.8951 15.9897 48.8993 16.2285V19.7276C48.8734 20.0652 48.9458 20.403 49.1099 20.7102C49.1915 20.8141 49.3048 20.8965 49.4373 20.9483C49.5698 21.0001 49.7164 21.0192 49.8607 21.0035C50.0709 21.0184 50.2795 20.9615 50.4416 20.8451C50.5753 20.7305 50.6613 20.581 50.6862 20.4198C50.7245 20.1877 50.7416 19.9533 50.7372 19.7188V19.009H52.378V19.6572C52.4241 20.2988 52.2248 20.9356 51.8107 21.4698C51.4336 21.8981 50.7915 22.1122 49.8471 22.1122C48.9026 22.1122 48.1892 21.8834 47.785 21.4082Z" fill="#AFB1B8"/>
<path d="M54.6169 21.4376C54.2024 20.9888 53.9952 20.3347 53.9952 19.4695V16.4367C53.9952 15.5803 54.2024 14.9321 54.6169 14.4921C55.0313 14.0521 55.7243 13.8331 56.6959 13.8351C57.6607 13.8351 58.3504 14.0541 58.7648 14.4921C59.1793 14.9321 59.3899 15.5803 59.3899 16.4367V19.4695C59.3899 20.3259 59.1793 20.9829 58.758 21.4346C58.3368 21.8863 57.6505 22.1122 56.6959 22.1122C55.7413 22.1122 55.0347 21.8834 54.6169 21.4376ZM57.4603 20.7102C57.6087 20.4291 57.6763 20.1212 57.6573 19.8127V16.0994C57.6764 15.7969 57.6099 15.4949 57.4637 15.2195C57.3805 15.1134 57.2643 15.0296 57.1286 14.9777C56.9928 14.9259 56.8429 14.908 56.6959 14.9262C56.5485 14.9085 56.3983 14.9265 56.2621 14.9783C56.1259 15.0301 56.0091 15.1136 55.9248 15.2195C55.7754 15.4941 55.7077 15.7965 55.7277 16.0994V19.8303C55.7071 20.1389 55.7748 20.4471 55.9248 20.7278C56.0204 20.8224 56.1384 20.8982 56.2709 20.9502C56.4033 21.0021 56.5471 21.029 56.6925 21.029C56.838 21.029 56.9818 21.0021 57.1142 20.9502C57.2466 20.8982 57.3646 20.8224 57.4603 20.7278V20.7102Z" fill="#AFB1B8"/>
<path d="M61.3635 13.9236H63.1301L64.4584 19.5192L65.8173 13.9236H67.5363L67.7096 22.0003H66.439L66.3031 16.3871L64.9918 22.0003H63.9726L62.6137 16.3665L62.488 22.0003H61.2039L61.3635 13.9236Z" fill="#AFB1B8"/>
<path d="M69.6902 13.9236H72.4419C74.0273 13.9236 74.8199 14.688 74.8199 16.217C74.8199 17.6814 73.9854 18.4126 72.3162 18.4106H71.3786V22.0003H69.68L69.6902 13.9236ZM72.041 17.3754C72.2089 17.3938 72.3793 17.3805 72.5406 17.3364C72.7019 17.2924 72.8502 17.2186 72.9753 17.1203C73.17 16.8475 73.256 16.5271 73.2199 16.2082C73.2287 15.9618 73.2013 15.7154 73.1383 15.475C73.1141 15.3947 73.0716 15.3194 73.0133 15.2534C72.9549 15.1874 72.882 15.1322 72.7986 15.0908C72.5628 14.9932 72.3021 14.9488 72.041 14.9618H71.382V17.3754H72.041Z" fill="#AFB1B8"/>
<path d="M77.2694 13.9236H79.0937L80.9655 22.0003H79.3824L79.0122 20.138H77.3849L77.0044 22.0003H75.3976L77.2694 13.9236ZM78.8287 19.2025L78.1934 15.8123L77.5582 19.2025H78.8287Z" fill="#AFB1B8"/>
<path d="M82.4773 13.9236H83.6663L85.9425 18.5309V13.9236H87.3523V22.0003H86.221L83.9313 17.1906V22.0003H82.4739L82.4773 13.9236Z" fill="#AFB1B8"/>
<path d="M90.6544 18.9208L88.7622 13.9349H90.3555L91.5105 17.1376L92.5942 13.9349H94.1536L92.2851 18.9208V22.0003H90.6544V18.9208Z" fill="#AFB1B8"/>
<path d="M50.4077 25.5316V25.954H49.0216V29.2359H48.4407V25.954H47.0479V25.5316H50.4077Z" fill="#AFB1B8"/>
<path d="M54.7527 29.2362H54.3042C54.2587 29.2386 54.2137 29.2261 54.1785 29.201C54.1446 29.1795 54.1186 29.15 54.1038 29.116L53.7029 28.2361H51.7801L51.3792 29.116C51.3678 29.1528 51.3469 29.1868 51.318 29.2157C51.2825 29.2402 51.2378 29.2527 51.1923 29.2509H50.7439L52.4425 25.5468H53.0337L54.7527 29.2362ZM51.9397 27.8607H53.5432L52.8638 26.3533C52.8137 26.2393 52.7717 26.1227 52.7381 26.0043C52.7143 26.0747 52.6939 26.1421 52.6735 26.2008L52.6124 26.3562L51.9397 27.8607Z" fill="#AFB1B8"/>
<path d="M57.6811 28.8724C57.7875 28.8772 57.8941 28.8772 58.0004 28.8724C58.0923 28.8642 58.1832 28.8495 58.2722 28.8284C58.3554 28.8107 58.4372 28.7882 58.5168 28.7609C58.5915 28.7345 58.6663 28.7022 58.7444 28.67V27.8369H58.065C58.0482 27.8378 58.0313 27.8356 58.0156 27.8305C57.9998 27.8255 57.9854 27.8177 57.9732 27.8076C57.9621 27.7993 57.9533 27.7889 57.9474 27.7772C57.9415 27.7655 57.9387 27.7529 57.9393 27.7401V27.4556H59.2574V28.8753C59.1498 28.9417 59.0362 29.0006 58.9177 29.0513C58.7965 29.1029 58.6704 29.1451 58.5406 29.1774C58.4016 29.2127 58.2596 29.2382 58.1159 29.2537C57.9512 29.2695 57.7856 29.2773 57.6199 29.2771C57.3269 29.2793 57.0362 29.2325 56.7638 29.1393C56.5095 29.051 56.2784 28.9193 56.0844 28.7521C55.8953 28.5832 55.7464 28.3839 55.6462 28.1655C55.5391 27.9199 55.4861 27.6593 55.4899 27.397C55.4863 27.133 55.5381 26.8706 55.6428 26.6226C55.7405 26.4031 55.8897 26.2033 56.081 26.036C56.2749 25.8693 56.506 25.7386 56.7604 25.6517C57.0513 25.5572 57.3601 25.5105 57.6709 25.5138C57.829 25.5137 57.987 25.5245 58.1431 25.5461C58.2812 25.5655 58.4166 25.597 58.5474 25.64C58.6662 25.6785 58.7801 25.7277 58.8871 25.7866C58.9912 25.8445 59.09 25.9092 59.1827 25.9802L59.0196 26.209C59.0068 26.2299 58.9878 26.2475 58.9645 26.2598C58.9412 26.2722 58.9145 26.279 58.8871 26.2794C58.8495 26.2784 58.813 26.2682 58.7818 26.2501C58.7308 26.2266 58.6765 26.1973 58.6153 26.1621C58.5431 26.123 58.4669 26.0896 58.3877 26.0624C58.2864 26.0273 58.1819 25.9998 58.0752 25.9802C57.9329 25.9576 57.7884 25.9468 57.6437 25.948C57.4196 25.9458 57.197 25.9807 56.9881 26.0506C56.799 26.1161 56.6286 26.2162 56.4887 26.3439C56.3479 26.4771 56.2403 26.6339 56.1727 26.8045C56.021 27.2056 56.021 27.6381 56.1727 28.0393C56.2471 28.2135 56.3628 28.3724 56.5124 28.5057C56.6518 28.6328 56.8209 28.7328 57.0084 28.799C57.2245 28.8631 57.4534 28.888 57.6811 28.8724Z" fill="#AFB1B8"/>
<path d="M63.0962 28.8136H64.9511V29.2359H62.5289V25.5316H63.1098L63.0962 28.8136Z" fill="#AFB1B8"/>
<path d="M66.8808 29.2359H66.2998V25.5316H66.8808V29.2359Z" fill="#AFB1B8"/>
<path d="M69.0414 25.5492C69.0759 25.5662 69.106 25.5892 69.1297 25.6167L71.613 28.409C71.6097 28.3651 71.6097 28.321 71.613 28.277C71.613 28.236 71.613 28.1949 71.613 28.1568V25.517H72.1192V29.2362H71.827C71.7838 29.2392 71.7403 29.2321 71.7014 29.2156C71.6661 29.1972 71.635 29.1733 71.6096 29.1452L69.1297 26.3558C69.1297 26.3998 69.1297 26.4409 69.1297 26.482C69.1297 26.523 69.1297 26.5612 69.1297 26.5964V29.2362H68.6439V25.5316H68.9463C68.9791 25.5317 69.0115 25.5377 69.0414 25.5492Z" fill="#AFB1B8"/>
<path d="M76.3963 25.5316V25.9393H74.3376V27.1624H76.0057V27.5554H74.3376V28.8195H76.3963V29.2272H73.7397V25.5316H76.3963Z" fill="#AFB1B8"/>
<path d="M15.5217 2.65551L41.3168 8.97882V31.1368L15.5217 24.8164V2.65551ZM13.8673 0.766724V25.8928L42.9678 33.0285V7.90538L13.8673 0.766724Z" fill="#AFB1B8"/>
<path d="M29.4639 44.6922L0.359985 37.5505V12.4271L29.4639 19.5659V44.6922Z" fill="#AFB1B8"/>
<path d="M14.3497 2.37099L39.8084 8.615L28.9815 17.9649L3.51939 11.7179L14.3497 2.37099ZM13.8673 0.766724L0.359985 12.4277L29.4639 19.5662L42.9678 7.90525L13.8673 0.766724Z" fill="#AFB1B8"/>
<path d="M31.1014 43.2788L42.9678 33.0315L31.1014 30.1193V43.2788Z" fill="#AFB1B8"/>
</svg>

<svg width="95" height="45" fill="none" xmlns="http://www.w3.org/2000/svg"><path d="M47.785 21.408a2.948 2.948 0 01-.605-1.988v-2.884c0-.883.2-1.555.602-2.015.4-.46 1.089-.688 2.065-.686.917 0 1.569.196 1.953.587.42.499.625 1.109.578 1.724v.678h-1.64v-.687c.005-.224-.01-.449-.048-.671a.65.65 0 00-.235-.399.95.95 0 00-.594-.155 1.005 1.005 0 00-.625.164.768.768 0 00-.272.44 3.332 3.332 0 00-.065.713v3.499c-.026.337.047.675.21.982a.771.771 0 00.328.238.9.9 0 00.424.055.893.893 0 00.58-.158.704.704 0 00.245-.425c.038-.232.056-.467.051-.701v-.71h1.641v.648a2.64 2.64 0 01-.567 1.813c-.377.428-1.02.642-1.964.642s-1.658-.229-2.062-.704zM54.617 21.438c-.415-.45-.622-1.103-.622-1.968v-3.033c0-.857.207-1.505.622-1.945.414-.44 1.107-.659 2.079-.657.965 0 1.654.22 2.069.657.414.44.625 1.088.625 1.945v3.032c0 .857-.21 1.514-.632 1.966-.421.451-1.108.677-2.062.677-.955 0-1.661-.229-2.08-.674zm2.843-.728c.149-.28.216-.589.197-.897v-3.714a1.649 1.649 0 00-.193-.88.776.776 0 00-.335-.241.907.907 0 00-.433-.052.918.918 0 00-.434.052.786.786 0 00-.337.242c-.15.274-.217.576-.197.88v3.73c-.02.309.047.617.197.898.095.094.213.17.346.222a1.158 1.158 0 00.843 0c.133-.052.25-.128.346-.222v-.018zM61.364 13.924h1.766l1.328 5.595 1.36-5.595h1.718L67.71 22h-1.271l-.136-5.613L64.992 22h-1.02l-1.358-5.634L62.488 22h-1.284l.16-8.076zM69.69 13.924h2.752c1.585 0 2.378.764 2.378 2.293 0 1.464-.835 2.196-2.504 2.194h-.937V22H69.68l.01-8.077zm2.351 3.451c.168.019.338.006.5-.039.16-.044.31-.117.434-.216a1.31 1.31 0 00.245-.912 2.532 2.532 0 00-.082-.733.594.594 0 00-.125-.222.703.703 0 00-.214-.162 1.76 1.76 0 00-.758-.13h-.659v2.414h.659zM77.27 13.924h1.824L80.966 22h-1.584l-.37-1.862h-1.627L77.005 22h-1.607l1.871-8.076zm1.559 5.279l-.636-3.39-.635 3.39h1.27zM82.477 13.924h1.19l2.275 4.607v-4.607h1.41V22h-1.131l-2.29-4.81V22h-1.457l.003-8.076zM90.654 18.92l-1.892-4.985h1.594l1.154 3.203 1.084-3.203h1.56l-1.869 4.986V22h-1.63v-3.08zM50.408 25.532v.422h-1.386v3.282h-.581v-3.282h-1.393v-.422h3.36zM54.753 29.236h-.449a.2.2 0 01-.126-.035.193.193 0 01-.074-.085l-.401-.88H51.78l-.4.88a.243.243 0 01-.062.1.208.208 0 01-.126.035h-.448l1.699-3.704h.59l1.72 3.69zm-2.813-1.375h1.603l-.68-1.508a2.699 2.699 0 01-.125-.349c-.024.07-.044.138-.065.197l-.06.155-.673 1.505zM57.681 28.872c.107.005.213.005.32 0 .091-.008.182-.023.271-.044.083-.017.165-.04.245-.067.075-.026.15-.059.227-.091v-.833h-.679a.137.137 0 01-.092-.03.087.087 0 01-.026-.03.074.074 0 01-.008-.037v-.284h1.318v1.42a2.578 2.578 0 01-.716.301c-.14.036-.281.061-.425.077a5.13 5.13 0 01-.496.023 2.59 2.59 0 01-.856-.138 2.09 2.09 0 01-.68-.387 1.79 1.79 0 01-.438-.586 1.851 1.851 0 01-.156-.769 1.92 1.92 0 01.153-.774c.097-.22.247-.42.438-.587.194-.167.425-.297.68-.384.29-.095.6-.142.91-.138.158 0 .316.01.472.032.138.02.274.051.404.094.12.038.233.088.34.147.104.058.203.122.296.193l-.163.229a.142.142 0 01-.056.05.17.17 0 01-.077.02.222.222 0 01-.105-.029 2.113 2.113 0 01-.167-.088 1.504 1.504 0 00-.227-.1 2.13 2.13 0 00-.313-.082 2.614 2.614 0 00-.431-.032 2.009 2.009 0 00-.656.103c-.189.065-.36.165-.5.293a1.29 1.29 0 00-.315.46 1.732 1.732 0 000 1.235c.074.174.19.333.34.467.139.127.308.227.495.293.216.064.445.089.673.073zM63.096 28.814h1.855v.422H62.53v-3.704h.58l-.013 3.282zM66.88 29.236h-.58v-3.704h.58v3.704zM69.041 25.55a.28.28 0 01.089.067l2.483 2.792a.881.881 0 010-.132V25.517h.506v3.72h-.292a.275.275 0 01-.126-.021.328.328 0 01-.091-.07l-2.48-2.79v2.88h-.486v-3.704h.302c.033 0 .066.006.095.017zM76.396 25.532v.407h-2.058v1.223h1.668v.393h-1.668v1.265h2.058v.407H73.74v-3.695h2.656zM15.522 2.656l25.795 6.323v22.158l-25.795-6.32V2.655zM13.867.766v25.127l29.1 7.136V7.905L13.868.767z" fill="#AFB1B8"/><path d="M29.464 44.692L.36 37.55V12.427l29.104 7.139v25.126z" fill="#AFB1B8"/><path d="M14.35 2.371l25.458 6.244-10.826 9.35-25.463-6.247L14.35 2.37zM13.867.767L.36 12.427l29.104 7.14L42.968 7.904 13.868.767zM31.101 43.279L42.968 33.03 31.1 30.12v13.16z" fill="#AFB1B8"/></svg>
